svgs/batteryone.svg

<svg width="192" height="192" viewBox="0 0 192 192" fill="none" xmlns="http://www.w3.org/2000/svg"><path d="M89.736 108.155C89.8712 107.683 89.8267 107.177 89.6111 106.738C89.3956 106.299 89.0247 105.959 88.572 105.784L64.372 96.396C64.1063 96.2925 63.8639 96.1353 63.6592 95.9339C63.4546 95.7325 63.2919 95.491 63.181 95.224C62.6483 93.9613 62.8916 92.676 63.911 91.368C81.417 68.758 98.8366 46.08 116.17 23.334C117.456 21.658 119.73 21.399 120.826 23.497C120.941 23.7168 121.01 23.9585 121.029 24.207C121.048 24.4556 121.015 24.7058 120.934 24.942L100.47 85.904C99.802 87.8933 100.479 89.1376 102.5 89.637L127.282 95.782C127.658 95.8749 128.006 96.0604 128.294 96.3218C128.581 96.5832 128.8 96.9123 128.93 97.2797C129.06 97.6471 129.098 98.0413 129.039 98.4269C128.981 98.8125 128.828 99.1774 128.595 99.489L76.635 169.226C76.4223 169.51 76.137 169.73 75.8102 169.862C75.4834 169.994 75.1274 170.034 74.781 169.976C72.331 169.58 72.128 167.918 72.751 165.792C78.5076 146.416 84.1686 127.204 89.736 108.155Z" stroke="black" stroke-width="12" stroke-miterlimit="6" stroke-linecap="round" stroke-linejoin="round"/></svg>

<svg xmlns="http://www.w3.org/2000/svg" width="192" height="192" fill="none" viewBox="0 0 192 192"><path stroke="#000" stroke-linecap="round" stroke-linejoin="round" stroke-miterlimit="6" stroke-width="12" d="M89.736 108.155a1.936 1.936 0 0 0-1.164-2.371l-24.2-9.388a2.157 2.157 0 0 1-1.191-1.172c-.533-1.263-.29-2.548.73-3.856a11164.912 11164.912 0 0 0 52.259-68.034c1.286-1.676 3.56-1.935 4.656.163a1.833 1.833 0 0 1 .108 1.445L100.47 85.904c-.668 1.99.009 3.234 2.03 3.733l24.782 6.145a2.367 2.367 0 0 1 1.313 3.707l-51.96 69.737a1.907 1.907 0 0 1-1.854.75c-2.45-.396-2.653-2.058-2.03-4.184a13514.592 13514.592 0 0 0 16.985-57.637"/></svg>
